X:1
T:Turn Your Eyes upon Jesus
T:Text: Helen H. Lemmel (1864-1961) Tune: Helen H. Lemmel (1864-1961)
T:Irregular [TURN YOUR EYES UPON JESUS] www.hymnary.org/text/o_soul_are_you_weary_and_troubled
T:Turn Your Eyes upon Jesus
T:This hymn is in the public domain.  You may freely use this score for personal and congregational worship.  If you reproduce the score, please credit Hymnary.org as the source. 
T:This hymn is in the public domain.  You may freely use this score for personal and congregational worship.  If you reproduce the score, please credit Hymnary.org as the source. 
Z:This hymn is in the public domain.  You may freely use this score for personal and congregational worship.  If you reproduce the score, please credit Hymnary.org as the source.
%%score ( 1 2 ) ( 3 4 )
L:1/8
M:3/4
K:F
V:1 treble nm="Piano" snm="Pno."
V:2 treble 
V:3 bass nm="Piano" snm="Pno."
V:4 bass 
V:1
 [CA]4 [CA]2 | [Ec]3 [EA] [EG]2 | F6 | F4 F2 | [DB]2 [DB]2 [DB]2 | [Dd]2 [DB]2 [DA]2 | G6- | %7
w: Turn your|eyes up- on|Je-|sus, look|full in His|won- der- ful|face;|
 G4 [FA][FB] | [Fc]4 [Ec]2 | [Fc]2 [FA]2 [EG]2 | F4 F2 | [DF]4 [DF][DG] | [CA]3 [EG] [FA]2 | %13
w: _ and the|things of|earth will grow|strange- ly|dim in the|light of his|
 [EB]2 [EA]2 [EG]2 | F6- | F6 |] %16
w: glo- ry and|grace.||
V:2
 x6 | x6 | F6 | _E4 E2 | x6 | x6 | (E2 C2 D2 | E4) x2 | x6 | x6 | F4 _E2 | x6 | x6 | x6 | F6- | %15
 F6 |] %16
V:3
 F,4 F,2 | [C,G,]3 [C,C] [C,B,]2 | [D,A,]6 | [C,A,]4 [F,A,]2 | [B,,B,]2 [B,,A,]2 [B,,G,]2 | %5
 [B,,F,]2 [B,,G,]2 [=B,,F,]2 | (E,4 F,2 | G,4) F,G, | [F,A,]4 [G,B,]2 | [A,C]2 [F,C]2 [^C,B,]2 | %10
 [D,A,]4 [=C,A,]2 | [B,,B,]4 [D,A,][B,,B,] | [C,F,]3 [C,C] [C,C]2 | [C,D]2 [C,C]2 [C,B,]2 | %14
 [F,,F,A,]6- | [F,,F,A,]6 |] %16
V:4
 F,4 F,2 | x6 | x6 | x6 | x6 | x6 | C,6- | C,4 F,F, | x6 | x6 | x6 | x6 | x6 | x6 | x6 | x6 |] %16

